X: 26936
T: Miss Brady
R: reel
M: 4/4
K: Edorian
EFGA BABc|dDDD ADFD|EFGA BAGF|1 GBAF GEED:|2 GBAF GEE2||
efge fgaf|efge fddf|gfed (3efg fe|1 dBAF GEE2:|2 dBAF GEED||
"(Variation 1st bar part A)" [E4B4] B3c||

